X: 18435
T: Hunting The Squirrel
R: jig
M: 6/8
K: Gmajor
"G"d3 d2e|d3 B3|"C"GAB "G"A2G|"C"GAB "D"A2G|
"G"d3 d2e|d3 B3|"C"GAB "D"A2G|1 "G"G3 z2G:|2 "G"G3 G3||
|:"C"c2d edc|"G/b"c2d edc|"Am"c2d e2f|"Em"g3 "D/f#"gfe|
"G"dB2 dB2|dB2 d3|"C"GAB "D"A2G|"G"G3 G3:|

